public/sheesh/icons2.svg

<svg width="42" height="42" viewBox="0 0 42 42" fill="none" xmlns="http://www.w3.org/2000/svg">
<rect width="42" height="42" rx="8" fill="#1D202F"/>
<path fill-rule="evenodd" clip-rule="evenodd" d="M18.7498 29.501V13C18.7498 11.9 19.1998 11 20.5498 11H21.4498C22.7998 11 23.2498 11.9 23.2498 13V29.501H26V24.001C26 22.901 26.4 22.001 27.6 22.001H28.4C29.6 22.001 30 22.901 30 24.001V29.501H31C31.41 29.501 31.75 29.841 31.75 30.251C31.75 30.661 31.41 31.001 31 31.001H30H26H11C10.59 31.001 10.25 30.661 10.25 30.251C10.25 29.841 10.59 29.501 11 29.501H11.9998V19C11.9998 17.9 12.3998 17 13.5998 17H14.3998C15.5998 17 15.9998 17.9 15.9998 19V29.501H18.7498Z" fill="#434665"/>
</svg>

<svg fill="none" height="42" viewBox="0 0 42 42" width="42" xmlns="http://www.w3.org/2000/svg"><rect fill="#1d202f" height="42" rx="8" width="42"/><path clip-rule="evenodd" d="m18.7498 29.501v-16.501c0-1.1.45-2 1.8-2h.9c1.35 0 1.8.9 1.8 2v16.501h2.7502v-5.5c0-1.1.4-2 1.6-2h.8c1.2 0 1.6.9 1.6 2v5.5h1c.41 0 .75.34.75.75s-.34.75-.75.75h-1-4-15c-.41 0-.75-.34-.75-.75s.34-.75.75-.75h.9998v-10.501c0-1.1.4-2 1.6-2h.8c1.2 0 1.6.9 1.6 2v10.501z" fill="#434665" fill-rule="evenodd"/></svg>
